packages/ffe-icons/icons/filled/lg/tv_with_assistant.svg

<svg xmlns="http://www.w3.org/2000/svg" height="40" viewBox="0 -960 960 960" width="40"><path d="M420-464.616q14.692 0 25.038-10.346T455.384-500q0-14.692-10.346-25.038T420-535.384q-14.692 0-25.038 10.346T384.616-500q0 14.692 10.346 25.038T420-464.616Zm120 0q14.692 0 25.038-10.346T575.384-500q0-14.692-10.346-25.038T540-535.384q-14.692 0-25.038 10.346T504.616-500q0 14.692 10.346 25.038T540-464.616Zm-240 0q14.692 0 25.038-10.346T335.384-500q0-14.692-10.346-25.038T300-535.384q-14.692 0-25.038 10.346T264.616-500q0 14.692 10.346 25.038T300-464.616Zm360 0q14.692 0 25.038-10.346T695.384-500q0-14.692-10.346-25.038T660-535.384q-14.692 0-25.038 10.346T624.616-500q0 14.692 10.346 25.038T660-464.616ZM223.615-220.001l-21.923 62.05q-1.294 3.275-4.091 5.227-2.797 1.953-6.283 1.953h-3.061q-4.328 0-7.702-3.413-3.375-3.413-3.375-7.792v-58.025h-14.615q-25.609 0-44.086-18.478-18.478-18.477-18.478-44.086v-434.87q0-25.609 18.478-44.086 18.477-18.478 44.086-18.478h634.87q25.609 0 44.086 18.478 18.478 18.477 18.478 44.086v434.87q0 25.631-18.478 44.125-18.477 18.493-44.086 18.493H782.82v58.971q0 4.418-2.886 7.311-2.886 2.894-7.294 2.894h-3.922q-3.539 0-6.231-1.927-2.692-1.927-3.564-5.304l-21.154-61.999H223.615Z"/></svg>

<svg xmlns="http://www.w3.org/2000/svg" viewBox="0 -960 960 960" width="32" height="32"><path d="M420-464.62q14.69 0 25.04-10.34 10.34-10.35 10.34-25.04t-10.34-25.04q-10.35-10.34-25.04-10.34t-25.04 10.34q-10.34 10.35-10.34 25.04t10.34 25.04q10.35 10.34 25.04 10.34Zm120 0q14.69 0 25.04-10.34 10.34-10.35 10.34-25.04t-10.34-25.04q-10.35-10.34-25.04-10.34t-25.04 10.34q-10.34 10.35-10.34 25.04t10.34 25.04q10.35 10.34 25.04 10.34Zm-240 0q14.69 0 25.04-10.34 10.34-10.35 10.34-25.04t-10.34-25.04q-10.35-10.34-25.04-10.34t-25.04 10.34q-10.34 10.35-10.34 25.04t10.34 25.04q10.35 10.34 25.04 10.34Zm360 0q14.69 0 25.04-10.34 10.34-10.35 10.34-25.04t-10.34-25.04q-10.35-10.34-25.04-10.34t-25.04 10.34q-10.34 10.35-10.34 25.04t10.34 25.04q10.35 10.34 25.04 10.34ZM223.62-220l-21.93 62.05q-1.29 3.27-4.09 5.23-2.8 1.95-6.28 1.95h-3.06q-4.33 0-7.71-3.41-3.37-3.42-3.37-7.8V-220h-14.61q-25.61 0-44.09-18.48Q100-256.96 100-282.57v-434.86q0-25.61 18.48-44.09Q136.96-780 162.57-780h634.86q25.61 0 44.09 18.48Q860-743.04 860-717.43v434.86q0 25.64-18.48 44.13-18.48 18.49-44.09 18.49h-14.61v58.97q0 4.42-2.89 7.32-2.88 2.89-7.29 2.89h-3.92q-3.54 0-6.23-1.93-2.7-1.93-3.57-5.3l-21.15-62H223.62Z"/></svg>
